X: 26820
T: Mills Are Grinding, The
R: reel
M: 4/4
K: Gmajor
DGGF ~G3A|BGBd cBAF|D3E ~F3G|ABcA BGAF|
DGGF ~G3A|BGBd cA~A2|d2 (3efg fdcA|1 AGFA G3E:|2 AGFA G3B||
|:dggf ~g3a|bg~g2 bgaf|~d3e ~f3g|af~f2 afge|
dggf ~g3a|bg~g2 bgaf|d2 (3efg fdcA|1 AGFA G3B:|2 AGFA G3E||

